X: 1
T: La ronde des voyageurs (trad.)
M: C|
L: 1/8
R: reel
K: Am
|:\
"Am"E3E A2c2 | e4 -eede |\
"Dm"f3f f2a2 | "Am"e3a/2a/2 "D7"a4 |\
"G"G4 B3d | d4"Dm/F"-dBde |\
[1 "E"f3d d2B2 | "Am"cAAB "E"~A2E2 :|
[2 f2d2 B2e2 | "Am"A4 A4 |]\
[K:A] |:\
"A"c3c c2e2 | "A/C#"A4-AAcd |\
e2a2 "Cdim"g3f | "Bm"ggeg ~f2ec |\
"Bm"d2zf d2c2 |
"E"BBGB EGBe |\
"B7"g3a gfeg | "E7"fedf ecAB |\
"A"cccc c2 e2 | A4-AAcd |\
e2a2 "A/C#"g3f |
"D"b4f3g |\
"D"aaga "D#dim"~g2fg | "A/E"~f2ef "F#7"eAce |\
"B7"d'2b2 "E7"f3g |1 "A"afec A2B2 :|2 "A"afecA4 |]
